icons/key-16.svg

<svg width="16" height="16" viewBox="0 0 16 16" xmlns="http://www.w3.org/2000/svg">
  <path fill-rule="evenodd" clip-rule="evenodd" d="M6.5 5.5C6.5 3.29086 8.29086 1.5 10.5 1.5C12.7091 1.5 14.5 3.29086 14.5 5.5C14.5 7.70914 12.7091 9.5 10.5 9.5C10.0553 9.5 9.62908 9.42773 9.23144 9.29488C8.96183 9.20479 8.66445 9.27489 8.46345 9.47589L7.43934 10.5H6.25C5.83579 10.5 5.5 10.8358 5.5 11.25V12.4393L5.43934 12.5H4.25C3.83579 12.5 3.5 12.8358 3.5 13.25V14.4393L3.43934 14.5H1.75C1.61193 14.5 1.5 14.3881 1.5 14.25V12.5607L6.52411 7.53655C6.72511 7.33555 6.79521 7.03818 6.70513 6.76856C6.57227 6.37092 6.5 5.94466 6.5 5.5ZM10.5 0C7.46243 0 5 2.46243 5 5.5C5 5.94272 5.05246 6.374 5.15173 6.78761L0.21967 11.7197C0.0790176 11.8603 0 12.0511 0 12.25V14.25C0 15.2165 0.783502 16 1.75 16H3.75C3.94891 16 4.13968 15.921 4.28033 15.7803L4.78033 15.2803C4.92098 15.1397 5 14.9489 5 14.75V14H5.75C5.94891 14 6.13968 13.921 6.28033 13.7803L6.78033 13.2803C6.92098 13.1397 7 12.9489 7 12.75V12H7.75C7.94891 12 8.13968 11.921 8.28033 11.7803L9.21239 10.8483C9.626 10.9475 10.0573 11 10.5 11C13.5376 11 16 8.53757 16 5.5C16 2.46243 13.5376 0 10.5 0ZM11 6C11.5523 6 12 5.55228 12 5C12 4.44772 11.5523 4 11 4C10.4477 4 10 4.44772 10 5C10 5.55228 10.4477 6 11 6Z"/>
</svg>

<svg xmlns="http://www.w3.org/2000/svg" width="16" height="16" viewBox="0 0 16 16"><path fill-rule="evenodd" d="M6.5 5.5a4 4 0 112.731 3.795.75.75 0 00-.768.18L7.44 10.5H6.25a.75.75 0 00-.75.75v1.19l-.06.06H4.25a.75.75 0 00-.75.75v1.19l-.06.06H1.75a.25.25 0 01-.25-.25v-1.69l5.024-5.023a.75.75 0 00.181-.768A3.995 3.995 0 016.5 5.5zm4-5.5a5.5 5.5 0 00-5.348 6.788L.22 11.72a.75.75 0 00-.22.53v2C0 15.216.784 16 1.75 16h2a.75.75 0 00.53-.22l.5-.5a.75.75 0 00.22-.53V14h.75a.75.75 0 00.53-.22l.5-.5a.75.75 0 00.22-.53V12h.75a.75.75 0 00.53-.22l.932-.932A5.5 5.5 0 1010.5 0zm.5 6a1 1 0 100-2 1 1 0 000 2z"/></svg>
